X:1
T: Panmure House
C:
R:Strathspey
Q: 128
K:Am
M:4/4
L:1/16
|:cB|AA,3 A,3B, C3D E3^F|GG3 B3A G4 G3B|AA,3 A,3B, C3D E3d|c3A cBAG A6 cB|
AA,3 A,3B, C3D E3^F|GG3 B3A G4 G3d|e3c d3B c3A B3G|E3e d3B A6 B2|
Aa3 a3b g3g ag^fg|ea3 a3b g4 ^f3g|ea3 a3b g3g ag^fg|e3c d3B A6 B2|
Aa3 a3b g3g ag^fg|ea3 a3b g4 ((3g2a2b2) |((3a2g2^f2) ((3g2a2b2) ((3e2d2c2) ((3B2c2d2) |e3c d3B A6:|
